bots/cmping/seasonal/christmas.svg

<svg width="2048" height="2048" fill="none" xmlns="http://www.w3.org/2000/svg"><path fill="url(#a)" d="M0 0h2048v2048H0z"/><path d="M1067.92 992.117a348.273 348.273 0 0 0-177.208 23.733 348.28 348.28 0 0 0-188.498 188.5 348.27 348.27 0 0 0-26.513 133.29H327.402a696.596 696.596 0 0 1 921.648-659.247l-181.13 313.724Zm93.6 25.523a348.086 348.086 0 0 1 108.76 73.71 348.267 348.267 0 0 1 102.02 246.29h348.3c0-91.48-18.02-182.07-53.03-266.58a696.549 696.549 0 0 0-151-225.994 696.557 696.557 0 0 0-180.29-130.112l-174.76 302.686Z" fill="#F27878"/><path d="M1369.18 657.965a762.36 762.36 0 0 1 193.85 140.643 762.362 762.362 0 0 1 165.24 247.312 762.253 762.253 0 0 1 58.03 291.72h84.7c0-111.23-21.91-221.37-64.47-324.14a847.113 847.113 0 0 0-183.61-274.784 846.95 846.95 0 0 0-211.34-154.199l-42.4 73.448Zm-43.74-111.876A847.054 847.054 0 0 0 1024 490.636a846.995 846.995 0 0 0-598.919 248.08A847.01 847.01 0 0 0 241.474 1013.5 847.056 847.056 0 0 0 177 1337.64h84.7a762.25 762.25 0 0 1 58.027-291.72 762.3 762.3 0 0 1 962.753-425.425l42.96-74.406ZM1095 1333.64c0 41.42-33.58 75-75 75-41.421 0-75-33.58-75-75 0-41.43 33.579-75 75-75 41.42 0 75 33.57 75 75Z" fill="#F27878"/><path d="M992.346 1310.66 1486.94 454l68.53 39.567-494.59 856.663-68.534-39.57Z" fill="#F27878"/><defs><linearGradient id="a" x1="2048" y1="0" x2="0" y2="2048" gradientUnits="userSpaceOnUse"><stop stop-color="#65CC76"/><stop offset="1" stop-color="#68D49E"/></linearGradient></defs></svg>

<svg width="2048" height="2048" viewBox="0 0 2048 2048" fill="none" xmlns="http://www.w3.org/2000/svg">
<rect width="2048" height="2048" fill="url(#paint0_linear_4841_8099)"/>
<path d="M1067.92 992.118C1053.39 990.27 1038.72 989.338 1024 989.338C978.261 989.338 932.969 998.347 890.712 1015.85C848.454 1033.35 810.058 1059.01 777.715 1091.35C745.373 1123.69 719.717 1162.09 702.214 1204.35C684.71 1246.61 675.701 1291.9 675.701 1337.64H327.402C327.402 1246.16 345.42 1155.58 380.427 1071.06C415.435 986.545 466.746 909.753 531.431 845.067C596.116 780.382 672.908 729.071 757.423 694.064C841.939 659.057 932.521 641.039 1024 641.039C1100.66 641.039 1176.69 653.692 1249.05 678.394L1067.92 992.118Z" fill="white"/>
<path d="M1161.52 1017.64C1202.11 1035.08 1239.03 1060.09 1270.28 1091.35C1302.63 1123.69 1328.28 1162.09 1345.79 1204.35C1363.29 1246.61 1372.3 1291.9 1372.3 1337.64H1720.6C1720.6 1246.16 1702.58 1155.58 1667.57 1071.06C1632.57 986.545 1581.25 909.753 1516.57 845.067C1463.75 792.247 1402.86 748.345 1336.28 714.955L1161.52 1017.64Z" fill="white"/>
<path d="M1369.18 657.966C1440.69 694.285 1506.14 741.72 1563.03 798.609C1633.81 869.395 1689.96 953.431 1728.27 1045.92C1766.58 1138.4 1786.3 1237.53 1786.3 1337.64H1871C1871 1226.41 1849.09 1116.27 1806.53 1013.5C1763.96 910.741 1701.57 817.368 1622.92 738.717C1560.79 676.583 1489.46 624.598 1411.58 584.518L1369.18 657.966Z" fill="white"/>
<path d="M1325.44 546.091C1229.23 509.453 1127.08 490.637 1024 490.637C912.77 490.637 802.63 512.545 699.867 555.111C597.104 597.677 503.732 660.066 425.081 738.717C346.429 817.369 284.04 910.741 241.474 1013.5C198.908 1116.27 177 1226.41 177 1337.64H261.7C261.7 1237.53 281.417 1138.4 319.727 1045.92C358.036 953.431 414.186 869.395 484.973 798.609C555.759 727.823 639.794 671.673 732.28 633.363C824.767 595.054 923.893 575.337 1024 575.337C1112.21 575.337 1199.66 590.647 1282.48 620.496L1325.44 546.091Z" fill="white"/>
<path d="M1095 1333.64C1095 1375.06 1061.42 1408.64 1020 1408.64C978.579 1408.64 945 1375.06 945 1333.64C945 1292.21 978.579 1258.64 1020 1258.64C1061.42 1258.64 1095 1292.21 1095 1333.64Z" fill="#F27878"/>
<path d="M992.346 1310.66L1486.94 454L1555.47 493.567L1060.88 1350.23L992.346 1310.66Z" fill="#F27878"/>
<defs>
<linearGradient id="paint0_linear_4841_8099" x1="2048" y1="0" x2="0" y2="2048" gradientUnits="userSpaceOnUse">
<stop stop-color="#65CC76"/>
<stop offset="1" stop-color="#68D49E"/>
</linearGradient>
</defs>
</svg>
